X: 1
T: Bodapolska "Maka e du Britta"
R: Boda-polska
O:
B:
D:
Z: 1997 by John Chambers <jc@trillian.mit.edu>
N:
M: 3/4
L: 1/8
K: D
|: A2 \
| "D"{A}d2 df d>A | {A}d2 df d>A | "A7"c2 ef g>e | fd e>c A>A |
| "D"{A}d2 df d>c | "Em"{c}B2 eg {g}b>b | "A7"a2 g>{ag}e f>d | e<c "D"{c}d3 :|
|: e \
| "D"f2 ag f>a | "Em"g2 ba g>b | "D"a2 g>{ag}e f>d | "E7"e>c dB "A7"A>A |
| "D"f2 ag f>a | "Em"g2 ba g>f | "A7"e>d cB A>g  | e<c "D"{c}d3 :|
